X: 1566
T: Näckens polska efter Anders Eriksson Moberg
S: efter Anders Eriksson Moberg
O: Älvros, Härjedalen
B: EÖ, nr 649
N: Jämför EÖ nr 418.
N: ur EÖ: "Neckens polska" men med ålderdomligare prägel än den vanliga (EÖ:s anm.)
R: Halling
Z: Nils L
M: 3/4
L: 1/16
K: Am
(AB)(cd) e4 ^g2b2 | b2a2 .a2(ba) =g2f2 | ((ef)(ed) e2)c2 e2d2 | .B2(cB) A8 ::
e4 c2>e2 g2>e2 | (e2fe) (d2cd) e4 | e4 c2e2 g2e2 | (3e2f2e2 (3d2c2d2 e4 |
e4 c2e2 e2d2 | B2cB A6z2 :|
(:musicend:)

[[!Ackord]]
(:music:)
